X:1
T:Title
%%score { ( 1 3 ) | ( 2 4 ) }
L:1/8
M:4/4
K:C
V:1 treble nm="Grand Piano"
V:3 treble 
V:2 bass 
V:4 bass 
V:1
 z4 z[Q:1/4=100] GAc | G6 z2 | B6 z2 | B3 A G^G[FA][DF] | E4- EGAc | G6 z2 | A6 z2 | B4 G d3 | %8
[M:3/4] c6 |[M:1/4] cB |[M:4/4] A4 z4 | G4 z4 | A6 z2 | d4- dGAc | G6 z2 | A6 z2 | B4 G d3 | %17
[M:11/16] c/-c/-c/-c/-c/-c/-c/-c-<c |] %18
V:2
 z8 | z [C,G,][C,A,][C,C] .[C,G,]2 z2 | z G,[G,A,][G,B,][K:treble] [G,D]2 [G,DF]2 | %3
 [G,DF]3 [G,CF] [G,B,F][G,B,F][K:bass][G,,G,][B,,G,] | [C,G,C]6 z2 | %5
 z [C,G,][C,A,][C,C] [C,G,][C,G,][C,G,][C,C] | [F,CF][F,C][E,^C][E,C] [D,D]2 z2 | %7
 [G,DF]4 [G,B,F] [G,B,F]3 |[M:3/4][K:bass] G,G, A,A, G,2 |[M:1/4][K:treble] AG | %10
[M:4/4] F4[K:bass] z4 | [C,C][C,C][C,C][C,C] [C,C][C,G,C][D,G,B,][E,G,C] | %12
 [F,CF][F,C][E,^C][E,C] [D,D][D,C][D,B,][D,A,] | [G,B,F]6 z2 | %14
 z[K:bass] [C,C][C,C][C,C] [C,C][C,C][C,G,][C,C] | [F,CF][F,C][E,^C][E,C] [D,D]2 z2 | %16
 [G,DF]4 [G,B,F] [G,B,F]3 |[M:11/16][K:bass] G, z/ z/ z/ z/ z/ z/ z/ z |] %18
V:3
 x8 | z EEE EGAc | z FFF F2 B2 | x8 | x8 | z EEE E[EG][Ec][EB] | z FGG ^F2 z2 | x8 | %8
[M:3/4] EE FF E2 |[M:1/4] x2 |[M:4/4] z CCC [Ac][Ac][Ac][FA] | EEEE EEFG | z FGG ^F[FA][FB][Fc] | %13
 x8 | z EEE E[EG][Ec][EB] | z FGG ^F2 z2 | x8 |[M:11/16] EEFFE3/2 |] %18
V:4
 x8 | x8 | x4[K:treble] x4 | x6[K:bass] x2 | x8 | x8 | x8 | x8 |[M:3/4][K:bass] C,6 | %9
[M:1/4][K:treble] x2 |[M:4/4] z[K:bass] F,F,F, [F,F][F,F][F,F][F,C] | x8 | x8 | x8 | x[K:bass] x7 | %15
 x8 | x8 |[M:11/16][K:bass] C,-[C,-G,][C,-A,][C,-A,][C,G,]3/2 |] %18

